assets/icons/task/error-filled.svg

<?xml version="1.0" encoding="UTF-8" standalone="no"?>
<svg
   viewBox="0 0 24 24"
   height="24"
   width="24"
   version="1.1"
   id="svg4"
   sodipodi:docname="error-filled.svg"
   inkscape:version="1.2 (1:1.2.1+202207142221+cd75a1ee6d)"
   xmlns:inkscape="http://www.inkscape.org/namespaces/inkscape"
   xmlns:sodipodi="http://sodipodi.sourceforge.net/DTD/sodipodi-0.dtd"
   xmlns="http://www.w3.org/2000/svg"
   xmlns:svg="http://www.w3.org/2000/svg">
  <defs
     id="defs8" />
  <sodipodi:namedview
     id="namedview6"
     pagecolor="#ffffff"
     bordercolor="#666666"
     borderopacity="1.0"
     inkscape:pageshadow="2"
     inkscape:pageopacity="0.0"
     inkscape:pagecheckerboard="0"
     showgrid="true"
     inkscape:snap-page="true"
     inkscape:zoom="28"
     inkscape:cx="12.892857"
     inkscape:cy="12.25"
     inkscape:window-width="1920"
     inkscape:window-height="1043"
     inkscape:window-x="0"
     inkscape:window-y="0"
     inkscape:window-maximized="1"
     inkscape:current-layer="svg4"
     inkscape:showpageshadow="2"
     inkscape:deskcolor="#d1d1d1">
    <inkscape:grid
       type="xygrid"
       id="grid821" />
    <inkscape:grid
       type="xygrid"
       id="grid823"
       dotted="true"
       spacingx="0.5"
       spacingy="0.5"
       empspacing="10" />
  </sodipodi:namedview>
  <path
     id="rect896"
     style="fill:#808080;fill-opacity:1;fill-rule:evenodd;stroke-width:0.5;stroke-linecap:round"
     d="M 11.5 2 C 10.119291 2 9 3.1192923 9 4.5 C 9.00266 4.668213 9.0222888 4.83573 9.0585938 5 L 8.5 5 C 7.000009 5 5.9439457 4.9492575 5.1171875 5.4453125 C 4.7038084 5.6933402 4.3972491 6.1012225 4.2285156 6.6074219 C 4.0597827 7.1136213 4 7.722227 4 8.5 L 4 17.5 C 4 18.277772 4.0597822 18.886381 4.2285156 19.392578 C 4.3972491 19.89878 4.7038084 20.306659 5.1171875 20.554688 C 5.8450438 20.9914 6.7702514 21.00316 8 21 L 12.763672 21 A 4.5 4.5 0 0 1 12 18.5 A 4.5 4.5 0 0 1 16.5 14 A 4.5 4.5 0 0 1 19 14.757812 L 19 9 L 19 8.5 C 19 7.722227 18.94022 7.1136213 18.771484 6.6074219 C 18.602755 6.1012225 18.296194 5.6933402 17.882812 5.4453125 C 17.056056 4.9492577 15.999993 5 14.5 5 L 13.941406 5 C 13.977706 4.83573 13.99735 4.668213 14 4.5 C 14 3.1192923 12.880709 2 11.5 2 z M 11.5 3 C 12.328424 3 13 3.6715753 13 4.5 C 13 5.3284247 12.328424 6 11.5 6 C 10.671576 6 10 5.3284247 10 4.5 C 10 3.6715753 10.671576 3 11.5 3 z M 7 9 L 16 9 L 16 10 L 7 10 L 7 9 z M 7 11 L 16 11 L 16 12 L 7 12 L 7 11 z M 7 13 L 16 13 L 16 14 L 7 14 L 7 13 z M 7 15 L 12 15 L 12 16 L 7 16 L 7 15 z " />
  <path
     id="path389"
     style="fill:#808080;fill-rule:evenodd;stroke:none;stroke-width:2;stroke-linecap:round;stroke-linejoin:round"
     d="M 16.5 15 C 14.567007 15 13 16.567007 13 18.5 C 13 20.432993 14.567007 22 16.5 22 C 18.432993 22 20 20.432993 20 18.5 C 20 16.567007 18.432993 15 16.5 15 z M 15.353516 16.646484 L 15.5 16.792969 L 15.853516 17.146484 L 16.5 17.792969 L 17.5 16.792969 L 17.646484 16.646484 L 18.353516 17.353516 L 18.207031 17.5 L 17.853516 17.853516 L 17.207031 18.5 L 17.853516 19.146484 L 18.207031 19.5 L 18.353516 19.646484 L 17.646484 20.353516 L 17.5 20.207031 L 16.5 19.207031 L 15.853516 19.853516 L 15.5 20.207031 L 15.353516 20.353516 L 14.646484 19.646484 L 14.792969 19.5 L 15.146484 19.146484 L 15.792969 18.5 L 15.146484 17.853516 L 14.792969 17.5 L 14.646484 17.353516 L 15.353516 16.646484 z " />
</svg>

<svg height="24" width="24" xmlns="http://www.w3.org/2000/svg"><path style="fill:gray;fill-opacity:1;stroke-width:.5;stroke-linecap:round" d="M11.5 2A2.5 2.5 0 0 0 9 4.5a2.5 2.5 0 0 0 .059.5H8.5c-1.5 0-2.556-.05-3.383.445-.413.248-.72.656-.888 1.162C4.059 7.114 4 7.722 4 8.5v9c0 .778.06 1.386.229 1.893.168.506.475.914.888 1.162.728.436 1.653.448 2.883.445h4.764A4.5 4.5 0 0 1 12 18.5a4.5 4.5 0 0 1 4.5-4.5 4.5 4.5 0 0 1 2.5.758V8.5c0-.778-.06-1.386-.229-1.893-.168-.506-.475-.914-.888-1.162C17.056 4.95 16 5 14.5 5h-.559A2.5 2.5 0 0 0 14 4.5 2.5 2.5 0 0 0 11.5 2zm0 1a1.5 1.5 0 1 1 0 3 1.5 1.5 0 0 1 0-3zM7 9h9v1H7V9zm0 2h9v1H7v-1zm0 2h9v1H7v-1zm0 2h5v1H7v-1z"/><path style="fill:gray;stroke:none;stroke-width:2;stroke-linecap:round;stroke-linejoin:round" d="M16.5 15a3.5 3.5 0 1 0 0 7 3.5 3.5 0 0 0 0-7zm-1.146 1.646.146.147.354.353.646.647 1-1 .146-.147.708.708-.147.146-.353.354-.647.646.647.646.353.354.147.146-.708.708-.146-.147-1-1-.646.647-.354.353-.146.147-.708-.708.147-.146.353-.354.647-.646-.647-.646-.353-.354-.147-.146.708-.708z"/></svg>
